!!!!SEGMENT: pl-stab--10a--001-004_rodowski-aleksander--litanie-lauretane-de-b-v-m-mater-christi.krn
!!!cenid: 18xx:3434
!!!COM: Rodowski, Aleksander
!!!COM-rismID: pe30009627
!!!CDT: <1790->1810
!!!CNT: Polish
!!!OPR: Litanie Lauretane de B.V.M
!!!OTL: Mater Christi
!!!OMV: 004
!!!PDT:
!!!AGN:
!!!OMD: Adagio
!!!SMS-siglum: PL-STAb
!!!SMS-shelfmark: 10a
!!!SMS-shelfwork: 001-004 M
!!!SMS-variant:
!!!SMS-altvar:
!!!NIFC-rismSourceID: 301050674
!!!NIFC-islandoraID: pl-stab:2273
!!!URL-pdf-islandora: https://repozytorium.nifc.pl/islandora/object/pl-stab%3A2273/datastream/PDF/view
!!!URL-scan: https://polish.musicsources.pl/pl/lokalizacje/galeria/rekopisy/4397 @EN{Scan on Polish Music Sources Website} @PL{Skany w portalu Dziedzictwo Muzyki Polskiej w otwartym dostępie}
!!!ONB-nifc: UWAGA: części Litanii: 1. Kyrie, 2. Pater de caelis, 3. Sancta Maria, 4. Mater Christi, 5. Mater amabilis, 6. Virgo prudentissima, 7. Rosa mistica, 8. Salus infirmorum, 9. Regina angelorum, 10. Agnus Dei
!!!AIN: 3 empty 1 organ 1 tenor 2 violn 1 vox
!!!key:
**kern	**kern	**dynam	**kern	**dynam	**kern	**text	**kern	**text	**kern	**text	**kern	**kern
*part8	*part7	*part7	*part6	*part6	*part5	*part5	*part4	*part4	*part3	*part3	*part2	*part1
*staff8	*staff7	*	*staff6	*	*staff5	*staff5	*staff4	*staff4	*staff3	*staff3	*staff2	*staff1
*Iorgan	*Ivioln	*	*Ivioln	*	*Iempty	*	*Itenor	*	*Ivox	*	*Iempty	*Iempty
*I"Organo	*I"Violino Secundo	*	*I"Violino Primo	*	*I"Baſso	*	*I"Tenore	*	*I"Canto	*	*I"Cornu Secundo in G.	*I"Cornu Primo in G.
*I'org	*I'vl 2	*	*I'vl 1	*	*I'B	*	*I'T	*	*I'S	*	*I'cor 2 in G	*I'cor 1 in G
*clefF4	*clefG2	*	*clefG2	*	*clefF4	*	*clefC4	*	*clefC1	*	*clefG2	*clefG2
*	*	*	*	*	*	*	*	*	*	*	*ITrd3c5	*ITrd3c5
*k[]	*k[]	*	*k[]	*	*k[]	*	*k[]	*	*k[]	*	*k[]	*k[]
*C:	*C:	*	*C:	*	*C:	*	*C:	*	*C:	*	*C:	*C:
*M4/4	*M4/4	*	*M4/4	*	*M4/4	*	*M4/4	*	*M4/4	*	*M4/4	*M4/4
*met(c)	*met(c)	*	*met(c)	*	*met(c)	*	*met(c)	*	*met(c)	*	*met(c)	*met(c)
*	*	*	*	*below	*	*	*	*	*	*	*	*
=1	=1	=1	=1	=1	=1	=1	=1	=1	=1	=1	=1	=1
!	!LO:N:vis=8.	!	!LO:N:vis=8.	!	!	!	!	!	!	!	!	!LO:TX:a:t=Mater Christi Tacet
!LO:TX:t=P:problem=brak skanu	!	!	!	!	!	!	!	!	!	!	!LO:TX:a:t=Mater Christi Tacet	!
!	!	!LO:DY:rj	!	!LO:DY:rj	!	!	!	!	!	!	!	!
1ryy	8cc/L 8e/ 8G/	f	8cc/L 8e/ 8G/	f	00r	.	00r	.	00r	.	1ryy	1ryy
.	16r	.	16r	.	.	.	.	.	.	.	.	.
.	16B/Jk	.	16B/Jk	.	.	.	.	.	.	.	.	.
!	!	!LO:DY:rj	!	!LO:DY:rj	!	!	!	!	!	!	!	!
.	16.c/LL	p	16.c/LL	p	.	.	.	.	.	.	.	.
.	32B/K	.	32B/K	.	.	.	.	.	.	.	.	.
.	16.c/	.	16.c/	.	.	.	.	.	.	.	.	.
.	32B/JJk	.	32B/JJk	.	.	.	.	.	.	.	.	.
.	8.c/L	.	8.c/L	.	.	.	.	.	.	.	.	.
.	16e/K	.	16e/K	.	.	.	.	.	.	.	.	.
.	8.g/	.	8.g/	.	.	.	.	.	.	.	.	.
.	16cc/Jk	.	16cc/Jk	.	.	.	.	.	.	.	.	.
=2	=2	=2	=2	=2	=2	=2	=2	=2	=2	=2	=2	=2
!	!LO:N:vis=8.	!LO:DY:rj	!LO:N:vis=8.	!LO:DY:rj	!	!	!	!	!	!	!	!
1ryy	8b/L 8f/	f	8b/L 8f/	f	.	.	.	.	.	.	1ryy	1ryy
.	16r	.	16r	.	.	.	.	.	.	.	.	.
.	16c#X/Jk	.	16c#X/Jk	.	.	.	.	.	.	.	.	.
!	!	!LO:DY:rj	!	!LO:DY:rj	!	!	!	!	!	!	!	!
.	16.d/LL	p	16.d/LL	p	.	.	.	.	.	.	.	.
.	32c#/K	.	32c#/K	.	.	.	.	.	.	.	.	.
.	16.d/	.	16.d/	.	.	.	.	.	.	.	.	.
.	32c#/JJk	.	32c#/JJk	.	.	.	.	.	.	.	.	.
.	8d./L	.	8d/L	.	.	.	.	.	.	.	.	.
.	.	.	8f/	.	.	.	.	.	.	.	.	.
.	16f/	.	.	.	.	.	.	.	.	.	.	.
.	8.b/	.	8b/	.	.	.	.	.	.	.	.	.
.	.	.	8dd/J	.	.	.	.	.	.	.	.	.
.	16dd/J	.	.	.	.	.	.	.	.	.	.	.
=3	=3	=3	=3	=3	=3	=3	=3	=3	=3	=3	=3	=3
!	!LO:N:vis=8.	!LO:DY:rj	!LO:N:vis=8.	!	!	!	!	!	!	!	!	!
1ryy	8cc/L 8g/	f	8cc/L 8g/	f	.	.	.	.	.	.	1ryy	1ryy
.	16r	.	16r	.	.	.	.	.	.	.	.	.
.	16d#X/Jk	.	16d#X/Jk	.	.	.	.	.	.	.	.	.
!	!	!LO:DY:rj	!LO:SIC:v:t=brakująca dyn. piano	!	!	!	!	!	!	!	!	!
.	16.e/LL	p	16.e/LL	.	.	.	.	.	.	.	.	.
.	32d#X/K	.	32d#X/K	.	.	.	.	.	.	.	.	.
.	16.e/	.	16.e/	.	.	.	.	.	.	.	.	.
.	32d#/JJk	.	32d#/JJk	.	.	.	.	.	.	.	.	.
.	8e/L	.	8e/L	.	.	.	.	.	.	.	.	.
.	8g/	.	8g/	.	.	.	.	.	.	.	.	.
.	8cc/	.	8cc/	.	.	.	.	.	.	.	.	.
.	8f#X/J	.	8f#X/J	.	.	.	.	.	.	.	.	.
!	!	!	!LO:LB:g=original	!	!	!	!	!	!	!	!	!
=4	=4	=4	=4	=4	=4	=4	=4	=4	=4	=4	=4	=4
1ryy	8.g/L	.	8.g/L	.	.	.	.	.	.	.	1ryy	1ryy
.	16f#X/Jk	.	16f#X/Jk	.	.	.	.	.	.	.	.	.
.	16.g/LL	.	16.g/LL	.	.	.	.	.	.	.	.	.
.	32f#/K	.	32f#/K	.	.	.	.	.	.	.	.	.
.	16.g/	.	16.g/	.	.	.	.	.	.	.	.	.
.	32f#/JJk	.	32f#/JJk	.	.	.	.	.	.	.	.	.
!	!LO:LB:g=original	!	!	!	!	!	!	!	!	!	!	!
.	8g/L	.	8g/L	.	.	.	.	.	.	.	.	.
.	8fn/	.	8a/	.	.	.	.	.	.	.	.	.
.	8e/	.	8g/	.	.	.	.	.	.	.	.	.
.	8d/J	.	8a/J	.	.	.	.	.	.	.	.	.
=5	=5	=5	=5	=5	=5	=5	=5	=5	=5	=5	=5	=5
*	*	*	*	*	*	*	*	*	*2\right	*	*	*
!	!LO:N:vis=8.	!LO:DY:rj	!LO:N:vis=8.	!LO:DY:rj	!	!	!	!	!	!	!	!
1ryy	8cc/L 8e/ 8G/	f	8cc/L 8e/ 8G/	f	2C/	Ma-	2E/	Ma-	2cc\	Ma-	1ryy	1ryy
.	16r	.	16r	.	.	.	.	.	.	.	.	.
.	16B/Jk	.	16B/Jk	.	.	.	.	.	.	.	.	.
!	!	!LO:DY:rj	!	!LO:DY:rj	!	!	!	!	!	!	!	!
.	16.c/LL	p	16.c/LL	p	.	.	.	.	.	.	.	.
.	32B/K	.	32B/K	.	.	.	.	.	.	.	.	.
.	16.c/	.	16.c/	.	.	.	.	.	.	.	.	.
.	32B/JJk	.	32B/JJk	.	.	.	.	.	.	.	.	.
.	8c/L	.	8c/L	.	4C/	-ter	4E/	-ter	4cc\	-ter	.	.
.	8e/	.	8e/	.	.	.	.	.	.	.	.	.
.	8g/	.	8g/	.	4r	.	4r	.	4r	.	.	.
.	8cc/J	.	8cc/J	.	.	.	.	.	.	.	.	.
=6	=6	=6	=6	=6	=6	=6	=6	=6	=6	=6	=6	=6
*	*	*	*	*	*2\right	*ij	*	*ij	*	*ij	*	*
!	!LO:N:vis=8.	!LO:DY:rj	!LO:N:vis=8.	!	!	!	!	!	!	!	!	!
1ryy	8b/L 8f/	f	8b/L 8f/	f	2D\	Ma-	2F/	Ma-	2b\	Ma-	1ryy	1ryy
.	16r	.	16r	.	.	.	.	.	.	.	.	.
.	16c#X/Jk	.	16c#X/Jk	.	.	.	.	.	.	.	.	.
!	!	!LO:DY:rj	!	!LO:DY:rj	!	!	!	!	!	!	!	!
.	16.d/LL	p	16.d/LL	p	.	.	.	.	.	.	.	.
.	32c#/K	.	32c#/K	.	.	.	.	.	.	.	.	.
.	16.d/	.	16.d/	.	.	.	.	.	.	.	.	.
.	32c#/JJk	.	32c#/JJk	.	.	.	.	.	.	.	.	.
.	8d/L	.	8d/L	.	4D\	-ter	4F/	-ter	4b\	-ter	.	.
.	8f/	.	8f/	.	.	.	.	.	.	.	.	.
.	8b/	.	8b/	.	4r	.	4r	.	4r	.	.	.
.	8dd/J	.	8dd/J	.	.	.	.	.	.	.	.	.
=7	=7	=7	=7	=7	=7	=7	=7	=7	=7	=7	=7	=7
!	!	!LO:DY:rj	!LO:N:vis=8.	!	!	!	!	!	!	!	!	!
1ryy	8.cc/L 8.g/	f	8.cc/L 8.g/	f	2E\	Ma-	2G/	Ma-	2cc\	Ma-	1ryy	1ryy
.	16d#X/Jk	.	16d#X/Jk	.	.	.	.	.	.	.	.	.
!	!	!LO:DY:rj	!	!LO:DY:rj	!	!	!	!	!	!	!	!
.	16.e/LL	p	16.e/LL	p	.	.	.	.	.	.	.	.
.	32d#X/K	.	32d#X/K	.	.	.	.	.	.	.	.	.
.	16.e/	.	16.e/	.	.	.	.	.	.	.	.	.
.	32d#/JJk	.	32d#/JJk	.	.	.	.	.	.	.	.	.
!	!LO:N:vis=8	!	!LO:N:vis=8	!	!	!	!	!	!	!	!	!
.	16e/LL	.	16e/LL	.	4E\	-ter	4G/	-ter	4cc\	-ter	.	.
.	16r	.	16r	.	.	.	.	.	.	.	.	.
*	*Xtuplet	*	*	*	*	*	*	*	*	*	*	*
!	!	!	!LO:TUP:b:problem=klamra łukowa i  cyfra	!	!	!	!	!	!	!	!	!
.	24c/	.	24c/	.	.	.	.	.	.	.	.	.
.	24dn/	.	24dn/	.	.	.	.	.	.	.	.	.
.	24e/JJ	.	24e/JJ	.	.	.	.	.	.	.	.	.
.	8f/L	.	8f/L	.	4r	.	4r	.	4r	.	.	.
.	8f#X/J	.	8f#X/J	.	.	.	.	.	.	.	.	.
*	*	*	*	*	*	*Xij	*	*Xij	*	*Xij	*	*
=8	=8	=8	=8	=8	=8	=8	=8	=8	=8	=8	=8	=8
*	*	*	*	*	*	*	*2\right	*	*	*	*	*
1ryy	8.g/L	.	8.g/L	.	2G\	Chri-	2c\	Chri-	2ee\	Chri-	1ryy	1ryy
.	16f#X/Jk	.	16f#X/Jk	.	.	.	.	.	.	.	.	.
!	!	!	!LO:LB:g=original	!	!	!	!	!	!	!	!	!
.	16g/LL	.	16g/LL	.	.	.	.	.	.	.	.	.
.	16g/	.	16g/	.	.	.	.	.	.	.	.	.
.	16b/	.	16b/	.	.	.	.	.	.	.	.	.
.	16dd/JJ	.	16dd/JJ	.	.	.	.	.	.	.	.	.
.	4gg/ 4b/ 4d/	.	4gg/ 4b/ 4d/	.	8G\	-sti	8B\	-sti	8dd\	-sti	.	.
.	.	.	.	.	8G\	ma-	8G/	ma-	8b\	ma-	.	.
.	4r	.	4r	.	8G\	-ter	8A/	-ter	8cc\	-ter	.	.
.	.	.	.	.	8G\	di-	8B\	di-	8dd\	di-	.	.
!	!	!	!	!	!LO:LB:g=original	!	!	!	!	!	!	!
=9	=9	=9	=9	=9	=9	=9	=9	=9	=9	=9	=9	=9
!	!	!LO:DY:rj	!	!LO:DY:rj	!	!	!	!	!	!	!	!
1ryy	8.c/L	p	8.e/L	p	8.G\	-vi-	8.c\	-vi-	8.ee\	-vi-	1ryy	1ryy
!	!	!	!	!	!	!	!LO:N:vis=16	!	!LO:N:vis=16	!	!	!
.	32B/LL	.	32d/LL	.	16G\	-nae	32B\LLL	-nae	32dd\LLL	-nae	.	.
!	!	!	!	!	!	!	!LO:N:vis=16	!	!LO:N:vis=16	!	!	!
.	32c/JJJ	.	32e/JJJ	.	.	.	32c\JJJ	gra-	32ee\JJJ	gra-	.	.
!	!LO:LB:g=original	!	!	!	!	!	!	!	!	!	!	!
.	8d/L	.	8f/L	.	8G\	gra-	8d\	-ti-	8ff\	-ti-	.	.
.	8c/J	.	8e/J	.	8G\	-ti-	8c\	-ae	8ee\	-e	.	.
!	!	!	!	!	!	!	!LO:LB:g=original	!	!LO:LB:g=original	!	!	!
.	8B/L	.	8d/L	.	8G\	-ae	8B\	e	8dd\	e	.	.
*	*	*	*	*	*	*ij	*	*	*	*	*	*
.	8B/	.	8g/	.	8G\	ma-	8B\	ma-	8gg\	ma-	.	.
.	8c/	.	8a/	.	8A\	-ter-	8c\	-ter	8gg\	-ter	.	.
.	8d/J	.	8b/J	.	8B\	-di	8d\	di-	8gg\	di-	.	.
=10	=10	=10	=10	=10	=10	=10	=10	=10	=10	=10	=10	=10
1ryy	8.e/L	.	8.cc\L	.	8.c\	-vi-	8.e\	-vi-	8.gg\	-vi-	1ryy	1ryy
.	32d/LL	.	32b\LL	.	32c\LLL	-nae	32d\LLL	-nae	16gg\	-ne	.	.
.	32e/JJJ	.	32cc\JJJ	.	32d\JJJ	.	32e\JJJ	.	.	.	.	.
.	8f/L	.	8dd\L	.	8d\	gra-	8f\	gra-	8gg\	gra-	.	.
.	8e/J	.	8cc\J	.	8c\	-ti-	8e\	-ti-	8gg\	-ti-	.	.
!	!	!	!	!LO:DY:rj	!	!	!	!	!	!	!	!
.	16.e/LL 16.G/	.	16.gg/LL 16.b/	f	8B\	-ae	8d\	-ae	8gg\	-e	.	.
.	32f#X/K	.	32f#X/K	.	.	.	.	.	.	.	.	.
.	16.g/	.	16.g/	.	8r	.	8r	.	8r	.	.	.
.	32f#/JJk	.	32f#/JJk	.	.	.	.	.	.	.	.	.
.	8g/ 8G/	.	8g/	.	4r	.	4r	.	4r	.	.	.
.	8r	.	8r	.	.	.	.	.	.	.	.	.
*	*	*	*	*	*	*Xij	*	*	*	*	*	*
=11	=11	=11	=11	=11	=11	=11	=11	=11	=11	=11	=11	=11
*	*	*	*2\right	*	*	*	*	*	*	*	*	*
*	*tremolo	*	*tremolo	*	*	*	*	*	*	*	*	*
!	!LO:TX:t=P:problem=długość 4 cztery grupy	!	!LO:TX:t=P:problem=takty 11-14 błędnie zapisane jako miara półnuty poszczególne grupy	!	!	!	!	!	!	!	!	!
1ryy	32cc\LLL	.	32ee\LLL	.	4c\	O-	4G/	O-	4ee\	O-	1ryy	1ryy
.	32cc\	.	32ee\	.	.	.	.	.	.	.	.	.
.	32cc\	.	32ee\	.	.	.	.	.	.	.	.	.
.	32cc\JJJ	.	32ee\	.	.	.	.	.	.	.	.	.
*	*rep	*	*	*	*	*	*	*	*	*	*	*
.	32cc\LLL	.	32ee\	.	.	.	.	.	.	.	.	.
.	32cc\	.	32ee\	.	.	.	.	.	.	.	.	.
.	32cc\	.	32ee\	.	.	.	.	.	.	.	.	.
.	32cc\JJJ	.	32ee\JJJ	.	.	.	.	.	.	.	.	.
*	*Xrep	*	*	*	*	*	*	*	*	*	*	*
.	32dd\LLL	.	32gg#X\LLL	.	8.B\	-ra	8.G#X/	-ra	8.dd\	-ra	.	.
.	32dd\	.	32gg#\	.	.	.	.	.	.	.	.	.
.	32dd\	.	32gg#\	.	.	.	.	.	.	.	.	.
.	32dd\JJJ	.	32gg#\	.	.	.	.	.	.	.	.	.
*	*rep	*	*	*	*	*	*	*	*	*	*	*
.	32dd\LLL	.	32gg#\	.	.	.	.	.	.	.	.	.
.	32dd\	.	32gg#\	.	.	.	.	.	.	.	.	.
.	32dd\	.	32gg#\	.	16B\	pro	16G#/	pro	16dd\	pro	.	.
.	32dd\JJJ	.	32gg#\JJJ	.	.	.	.	.	.	.	.	.
*	*Xrep	*	*	*	*	*	*	*	*	*	*	*
*	*2\right	*	*	*	*	*	*	*	*	*	*	*
.	32cc\LLL	.	32aa\LLL	.	4A\	no-	4A/	no-	4cc\	no-	.	.
.	32cc\	.	32aa\	.	.	.	.	.	.	.	.	.
.	32cc\	.	32aa\	.	.	.	.	.	.	.	.	.
.	32cc\	.	32aa\	.	.	.	.	.	.	.	.	.
.	32cc\	.	32aa\	.	.	.	.	.	.	.	.	.
.	32cc\	.	32aa\	.	.	.	.	.	.	.	.	.
.	32cc\	.	32aa\	.	.	.	.	.	.	.	.	.
.	32cc\	.	32aa\JJJ	.	.	.	.	.	.	.	.	.
.	32cc\	.	32bb-X\LLL	.	4G\	-bis	4E/	-bis	4b-X\	-bis	.	.
.	32cc\	.	32bb-\	.	.	.	.	.	.	.	.	.
.	32cc\	.	32bb-\	.	.	.	.	.	.	.	.	.
.	32cc\	.	32bb-\	.	.	.	.	.	.	.	.	.
.	32cc\	.	32bb-\	.	.	.	.	.	.	.	.	.
.	32cc\	.	32bb-\	.	.	.	.	.	.	.	.	.
.	32cc\	.	32bb-\	.	.	.	.	.	.	.	.	.
.	32cc\JJJ	.	32bb-\JJJ	.	.	.	.	.	.	.	.	.
=12	=12	=12	=12	=12	=12	=12	=12	=12	=12	=12	=12	=12
1ryy	32cc\LLL	.	32aa\LLL	.	4F\	O-	4F/	O-	4a\	O-	1ryy	1ryy
.	32cc\	.	32aa\	.	.	.	.	.	.	.	.	.
.	32cc\	.	32aa\	.	.	.	.	.	.	.	.	.
.	32cc\	.	32aa\	.	.	.	.	.	.	.	.	.
.	32cc\	.	32aa\	.	.	.	.	.	.	.	.	.
.	32cc\	.	32aa\	.	.	.	.	.	.	.	.	.
.	32cc\	.	32aa\	.	.	.	.	.	.	.	.	.
.	32cc\JJJ	.	32aa\JJJ	.	.	.	.	.	.	.	.	.
.	32cc#X\LLL	.	32gg\LLL	.	8.E\	-ra	8.c#X\	-ra	8gg\	-ra	.	.
.	32cc#\	.	32gg\	.	.	.	.	.	.	.	.	.
.	32cc#\	.	32gg\	.	.	.	.	.	.	.	.	.
.	32cc#\	.	32gg\	.	.	.	.	.	.	.	.	.
.	32cc#\	.	32gg\	.	.	.	.	.	8gg\	pro	.	.
.	32cc#\	.	32gg\	.	.	.	.	.	.	.	.	.
.	32cc#\	.	32gg\	.	16E\	pro	16c#\	pro	.	.	.	.
.	32cc#\JJJ	.	32gg\JJJ	.	.	.	.	.	.	.	.	.
!	!	!	!	!	!LO:LB:g=original	!	!	!	!	!	!	!
.	32dd\LLL	.	32ff\LLL	.	4D/	no-	4A\	no-	4ff\	no-	.	.
.	32dd\	.	32ff\	.	.	.	.	.	.	.	.	.
.	32dd\	.	32ff\	.	.	.	.	.	.	.	.	.
.	32dd\	.	32ff\	.	.	.	.	.	.	.	.	.
.	32dd\	.	32ff\	.	.	.	.	.	.	.	.	.
.	32dd\	.	32ff\	.	.	.	.	.	.	.	.	.
.	32dd\	.	32ff\	.	.	.	.	.	.	.	.	.
.	32dd\	.	32ff\JJJ	.	.	.	.	.	.	.	.	.
.	32dd\	.	32ff#X\LLL	.	4C/	-bis	4A\	-bis	4ff#X\	-bis	.	.
.	32dd\	.	32ff#\	.	.	.	.	.	.	.	.	.
.	32dd\	.	32ff#\	.	.	.	.	.	.	.	.	.
.	32dd\	.	32ff#\	.	.	.	.	.	.	.	.	.
.	32dd\	.	32ff#\	.	.	.	.	.	.	.	.	.
.	32dd\	.	32ff#\	.	.	.	.	.	.	.	.	.
.	32dd\	.	32ff#\	.	.	.	.	.	.	.	.	.
.	32dd\JJJ	.	32ff#\JJJ	.	.	.	.	.	.	.	.	.
!	!	!	!	!	!	!	!LO:LB:g=original	!	!LO:LB:g=original	!	!	!
=13	=13	=13	=13	=13	=13	=13	=13	=13	=13	=13	=13	=13
*	*	*	*	*	*	*	*	*ij	*	*ij	*	*
!	!	!	!	!	!LO:TX:t=P:problem=mixed beam	!	!	!	!	!	!	!
1ryy	32dd\LLL	.	32gg\LLL	.	8BB/L	O-	4d	O-	4gg\	O-	1ryy	1ryy
.	32dd\	.	32gg\	.	.	.	.	.	.	.	.	.
.	32dd\	.	32gg\	.	.	.	.	.	.	.	.	.
.	32dd\	.	32gg\	.	.	.	.	.	.	.	.	.
.	32dd\	.	32gg\	.	8B\J	.	.	.	.	.	.	.
.	32dd\	.	32gg\	.	.	.	.	.	.	.	.	.
.	32dd\	.	32gg\	.	.	.	.	.	.	.	.	.
.	32dd\	.	32gg\JJJ	.	.	.	.	.	.	.	.	.
.	32dd\	.	32ffn\LLL	.	8.G\	-ra	8.d\	-ra	8.ffn\	-ra	.	.
.	32dd\	.	32ff\	.	.	.	.	.	.	.	.	.
.	32dd\	.	32ff\	.	.	.	.	.	.	.	.	.
.	32dd\	.	32ff\	.	.	.	.	.	.	.	.	.
.	32dd\	.	32ff\	.	.	.	.	.	.	.	.	.
.	32dd\	.	32ff\	.	.	.	.	.	.	.	.	.
.	32dd\	.	32ff\	.	16G\	pro	16d\	pro	16ff\	pro	.	.
.	32dd\JJJ	.	32ff\JJJ	.	.	.	.	.	.	.	.	.
.	32cc\LLL	.	32ee\LLL	.	4c\	no-	4G/	no-	4ee\	no-	.	.
.	32cc\	.	32ee\	.	.	.	.	.	.	.	.	.
.	32cc\	.	32ee\	.	.	.	.	.	.	.	.	.
.	32cc\	.	32ee\	.	.	.	.	.	.	.	.	.
.	32cc\	.	32ee\	.	.	.	.	.	.	.	.	.
.	32cc\	.	32ee\	.	.	.	.	.	.	.	.	.
.	32cc\	.	32ee\	.	.	.	.	.	.	.	.	.
.	32cc\	.	32ee\JJJ	.	.	.	.	.	.	.	.	.
.	32cc\	.	32ee-X\LLL	.	4F#X\	-bis	4A/	-bis	4ee-X\	-bis	.	.
.	32cc\	.	32ee-\	.	.	.	.	.	.	.	.	.
.	32cc\	.	32ee-\	.	.	.	.	.	.	.	.	.
.	32cc\	.	32ee-\	.	.	.	.	.	.	.	.	.
.	32cc\	.	32ee-\	.	.	.	.	.	.	.	.	.
.	32cc\	.	32ee-\	.	.	.	.	.	.	.	.	.
.	32cc\	.	32ee-\	.	.	.	.	.	.	.	.	.
.	32cc\JJJ	.	32ee-\JJJ	.	.	.	.	.	.	.	.	.
!	!	!	!LO:LB:g=original	!	!	!	!	!	!	!	!	!
=14	=14	=14	=14	=14	=14	=14	=14	=14	=14	=14	=14	=14
*	*	*	*	*	*	*ij	*	*	*	*	*	*
1ryy	16b\LL	.	32dd\LLL	.	4G\	O-	4B\	O-	4dd\	O-	1ryy	1ryy
.	.	.	32dd\	.	.	.	.	.	.	.	.	.
.	16b\	.	32dd\	.	.	.	.	.	.	.	.	.
.	.	.	32dd\	.	.	.	.	.	.	.	.	.
.	16b\	.	32dd\	.	.	.	.	.	.	.	.	.
.	.	.	32dd\	.	.	.	.	.	.	.	.	.
.	16b\JJ	.	32dd\	.	.	.	.	.	.	.	.	.
.	.	.	32dd\JJJ	.	.	.	.	.	.	.	.	.
.	16cc\LL	.	32ee-X\LLL	.	8.F#X\	-ra	8.c\	-ra	8.ee-X\	-ra	.	.
.	.	.	32ee-\	.	.	.	.	.	.	.	.	.
.	16cc\	.	32ee-\	.	.	.	.	.	.	.	.	.
.	.	.	32ee-\	.	.	.	.	.	.	.	.	.
.	16cc\	.	32ee-\	.	.	.	.	.	.	.	.	.
.	.	.	32ee-\	.	.	.	.	.	.	.	.	.
.	16cc\JJ	.	32ee-\	.	16F#\	pro	16c\	pro	16ee-\	pro	.	.
.	.	.	32ee-\JJJ	.	.	.	.	.	.	.	.	.
.	16b\LL	.	32dd\LLL	.	4G\	no-	4B\	no-	4ee-\	no-	.	.
.	.	.	32dd\	.	.	.	.	.	.	.	.	.
.	16b\	.	32dd\	.	.	.	.	.	.	.	.	.
.	.	.	32dd\	.	.	.	.	.	.	.	.	.
.	16b\	.	32dd\	.	.	.	.	.	.	.	.	.
.	.	.	32dd\	.	.	.	.	.	.	.	.	.
.	16b\JJ	.	32dd\	.	.	.	.	.	.	.	.	.
.	.	.	32dd\JJJ	.	.	.	.	.	.	.	.	.
.	16cc\LL	.	32ff#X\LLL	.	4A-X\	.	4c\	.	4ff#X\	.	.	.
.	.	.	32ff#\	.	.	.	.	.	.	.	.	.
.	16cc\	.	32ff#\	.	.	.	.	.	.	.	.	.
.	.	.	32ff#\	.	.	.	.	.	.	.	.	.
.	16cc\	.	32ff#\	.	.	.	.	.	.	.	.	.
.	.	.	32ff#\	.	.	.	.	.	.	.	.	.
.	16cc\JJ	.	32ff#\	.	.	.	.	.	.	.	.	.
.	.	.	32ff#\JJJ	.	.	.	.	.	.	.	.	.
*	*Xtremolo	*	*Xtremolo	*	*	*	*	*	*	*	*	*
=15	=15	=15	=15	=15	=15	=15	=15	=15	=15	=15	=15	=15
1ryy	16.b/LL	.	16.gg/LL 16.b/	.	4G\	-bis	4B\	-bis	4gg\	-bis	1ryy	1ryy
.	32f#X/K	.	32f#X/K	.	.	.	.	.	.	.	.	.
.	16.g/	.	16.g/	.	.	.	.	.	.	.	.	.
.	32f#/JJk	.	32f#/JJk	.	.	.	.	.	.	.	.	.
.	16.g/LL	.	16.g/LL	.	4r	.	4r	.	4r	.	.	.
.	32b/K	.	32b/K	.	.	.	.	.	.	.	.	.
.	16.dd/	.	16.dd/	.	.	.	.	.	.	.	.	.
.	32b/JJk	.	32b/JJk	.	.	.	.	.	.	.	.	.
.	8g/L	.	8g/L	.	2r	.	2r	.	2r	.	.	.
.	8b/ 8d/ 8G/	.	8gg/ 8b/	.	.	.	.	.	.	.	.	.
.	8b/J 8d/ 8G/	.	8gg/J 8b/	.	.	.	.	.	.	.	.	.
.	8r	.	8r	.	.	.	.	.	.	.	.	.
*	*	*	*	*	*	*Xij	*	*Xij	*	*Xij	*	*
=16	=16	=16	=16!|:	=16	=16	=16	=16	=16	=16	=16	=16	=16
!	!	!	!	!	!	!	!LO:TX:a:t=Solo	!	!	!	!	!
1ryy	8r	.	8r	.	2r	.	8e\	Ma-	8gg\	Ma-	1ryy	1ryy
!	!	!LO:DY:rj	!	!	!	!	!	!	!	!	!	!
.	16e/LL	p	16cc\LL	.	.	.	16c\	-ter	16ee\	-ter	.	.
.	16e/JJ	.	16cc\JJ	.	.	.	16c\	pu-	16ee\	pu-	.	.
.	16d/LL	.	16b\LL	.	.	.	8d\	-riſ-	8ff\	-riſ-	.	.
.	16d/	.	16b\	.	.	.	.	.	.	.	.	.
.	16f/	.	16dd\	.	.	.	8f\	-si-	8aa\	-si-	.	.
.	16f/JJ	.	16dd\JJ	.	.	.	.	.	.	.	.	.
!	!LO:LB:g=original	!	!	!	!	!	!	!	!	!	!	!
.	16e/LL	.	16cc\LL	.	16r	.	8e\	-ma	8gg\	-ma	.	.
.	16e/	.	16cc\	.	16C\	O-	.	.	.	.	.	.
.	16e/	.	16g\	.	16D\	-ra	8r	.	8r	.	.	.
.	16e/JJ	.	16g\JJ	.	16E\	pro	.	.	.	.	.	.
.	16d/LL	.	16f/LL	.	16F\LL	no-	4r	.	4r	.	.	.
.	16d/	.	16f/	.	16G\	.	.	.	.	.	.	.
.	16B/	.	16d/	.	16A\	.	.	.	.	.	.	.
.	16B/JJ	.	16d/JJ	.	16B\JJ	.	.	.	.	.	.	.
!	!	!	!	!	!LO:LB:g=original	!	!	!	!LO:LB:g=original	!	!	!
=17	=17!|:	=17	=17	=17	=17	=17	=17	=17	=17	=17	=17	=17
1ryy	16c/LL	.	16e/LL	.	8c\	-bis	8e\	ma-	8gg\	ma-	1ryy	1ryy
.	16c/	.	16e/	.	.	.	.	.	.	.	.	.
.	16e/	.	16cc/	.	8r	.	16c\	-ter	16ee\	-ter	.	.
.	16e/JJ	.	16cc/JJ	.	.	.	16c\	cas-	16ee\	cas-	.	.
!	!	!	!	!	!	!	!LO:LB:g=original	!	!	!	!	!
.	16d/LL	.	16b\LL	.	4r	.	8d\	-tiſ-	8ff\	-tis-	.	.
.	16d/	.	16b\	.	.	.	.	.	.	.	.	.
.	16f/	.	16dd\	.	.	.	8f\	-si-	8aa\	-si-	.	.
.	16f/JJ	.	16dd\JJ	.	.	.	.	.	.	.	.	.
*	*tremolo	*	*	*	*	*	*	*	*	*	*	*
.	16e/LL	.	16cc\LL	.	16r	.	8e\	-ma	8gg\	-ma	.	.
*	*	*	*	*	*	*ij	*	*	*	*	*	*
.	16e/	.	16cc\	.	16C\	O-	.	.	.	.	.	.
.	16e/	.	16g\	.	16D\	-ra	8r	.	8r	.	.	.
.	16e/JJ	.	16g\JJ	.	16E\	pro	.	.	.	.	.	.
*	*Xtremolo	*	*	*	*	*	*	*	*	*	*	*
.	16d/LL	.	16f/LL	.	16F\LL	no-	4r	.	4r	.	.	.
.	16d/	.	16f/	.	16G\	.	.	.	.	.	.	.
.	16B/	.	16d/	.	16A\	.	.	.	.	.	.	.
.	16B/JJ	.	16d/JJ	.	16B\JJ	.	.	.	.	.	.	.
=18	=18	=18	=18:|!	=18	=18	=18	=18	=18	=18	=18	=18	=18
!	!LO:TX:t=P:problem=takty 18 zapisany repetycją	!	!LO:TX:t=P:problem=takty 18-19 zapisane repetycją	!	!	!	!	!	!	!	!	!
1ryy	16c/LLyy	.	8ryy	.	8c\	-bis	8e\	ma-	8gg\	ma-	1ryy	1ryy
.	16c/yy	.	.	.	.	.	.	.	.	.	.	.
.	16e/yy	.	16cc\LLyy	.	8r	.	16c\	-ter	16ee\	-ter	.	.
.	16e/JJyy	.	16cc\JJyy	.	.	.	16c\	in	16ee\	in	.	.
.	16d/LLyy	.	16b\LLyy	.	4r	.	8d\	vi-	8ff\	vi-	.	.
.	16d/yy	.	16b\yy	.	.	.	.	.	.	.	.	.
.	16f/yy	.	16dd\yy	.	.	.	8f\	-o-	8aa\	-o-	.	.
.	16f/JJyy	.	16dd\JJyy	.	.	.	.	.	.	.	.	.
*	*tremolo	*	*	*	*	*	*	*	*	*	*	*
.	16e/LLyy	.	16cc\LLyy	.	16r	.	8e\	-la-	8gg\	-la-	.	.
.	16e/yy	.	16cc\yy	.	16C\	O-	.	.	.	.	.	.
.	16e/yy	.	16g\yy	.	16D\	-ra	8c\	-ta	8ee\	-ta	.	.
.	16e/JJyy	.	16g\JJyy	.	16E\	pro	.	.	.	.	.	.
*	*Xtremolo	*	*	*	*	*	*	*	*	*	*	*
.	16d/LLyy	.	16f/LLyy	.	16F\LL	no-	4r	.	4r	.	.	.
.	16d/yy	.	16f/yy	.	16G\	.	.	.	.	.	.	.
.	16B/yy	.	16d/yy	.	16A\	.	.	.	.	.	.	.
.	16B/JJyy	.	16d/JJyy	.	16B\JJ	.	.	.	.	.	.	.
=19	=19	=19	=19	=19	=19	=19	=19	=19	=19	=19	=19	=19
1ryy	16c/LL	.	16e/LLyy	.	8c\	-bis	8e\	Ma-	8gg\	Ma-	1ryy	1ryy
.	16c/	.	16e/yy	.	.	.	.	.	.	.	.	.
.	16e/	.	16cc/yy	.	8r	.	16c\	-ter	16ee\	-ter	.	.
.	16e/JJ	.	16cc/JJyy	.	.	.	16c\	in-	16ee\	in-	.	.
.	16d/LL	.	16b\LLyy	.	4r	.	8d\	-te-	8ff\	-te-	.	.
.	16d/	.	16b\yy	.	.	.	.	.	.	.	.	.
.	16f/	.	16dd\yy	.	.	.	8f\	-me-	8aa\	-me-	.	.
.	16f/JJ	.	16dd\JJyy	.	.	.	.	.	.	.	.	.
*	*tremolo	*	*	*	*	*	*	*	*	*	*	*
.	16e/LL	.	16cc\LLyy	.	16r	.	8e\	-ra-	8gg\	-ra-	.	.
.	16e/	.	16cc\yy	.	16C/	O-	.	.	.	.	.	.
.	16e/	.	16g\yy	.	16D\	-ra	8c\	-ta	8ee\	-ta	.	.
.	16e/JJ	.	16g\JJyy	.	16E\	pro	.	.	.	.	.	.
*	*Xtremolo	*	*	*	*	*	*	*	*	*	*	*
.	16d/LL	.	16f/LLyy	.	16F\LL	no-	4r	.	4r	.	.	.
.	16d/	.	16f/yy	.	16G\	.	.	.	.	.	.	.
.	16B/	.	16d/yy	.	16A\	.	.	.	.	.	.	.
.	16B/JJ	.	16d/JJyy	.	16B\JJ	.	.	.	.	.	.	.
!	!	!	!LO:LB:g=original	!	!LO:LB:g=original	!	!	!	!LO:LB:g=original	!	!	!
=20	=20	=20	=20	=20	=20	=20	=20	=20	=20	=20	=20	=20
*	*tremolo	*	*tremolo	*	*	*	*	*	*	*	*	*
!	!LO:TX:t=P:problem=grupa o wartości ćwierćnuty	!	!LO:TX:t=P:problem=takty 20-22 błędnie zapisane jako miara ćwierćnuty poszczególne grupy	!	!	!	!	!	!	!	!	!
1ryy	32cc\LLL	.	32ee\LLL	.	8c\	-bis	4c\	O-	4ee\	O-	1ryy	1ryy
.	32cc\	.	32ee\	.	.	.	.	.	.	.	.	.
.	32cc\	.	32ee\	.	.	.	.	.	.	.	.	.
.	32cc\JJJ	.	32ee\JJJ	.	.	.	.	.	.	.	.	.
*	*rep	*	*	*	*	*Xij	*	*	*	*	*	*
.	32cc\LLL	.	32aa\LLL	.	8A\	O-	.	.	.	.	.	.
.	32cc\	.	32aa\	.	.	.	.	.	.	.	.	.
.	32cc\	.	32aa\	.	.	.	.	.	.	.	.	.
.	32cc\JJJ	.	32aa\JJJ	.	.	.	.	.	.	.	.	.
*	*Xrep	*	*	*	*	*	*	*	*	*	*	*
*	*Xtremolo	*	*	*	*	*	*	*	*	*	*	*
!	!	!	!	!	!	!	!LO:LB:g=original	!	!	!	!	!
.	32b\LLL	.	32dd\LLL	.	8B\	-ra	8B\	-ra	8dd\	-ra	.	.
.	32b\	.	32dd\	.	.	.	.	.	.	.	.	.
.	32b\	.	32dd\	.	.	.	.	.	.	.	.	.
.	32b\JJJ	.	32dd\JJJ	.	.	.	.	.	.	.	.	.
*	*rep	*	*	*	*	*	*	*	*	*	*	*
.	32b\LLL	.	32gg\LLL	.	8G\	pro	8B\	pro	8dd\	pro	.	.
.	32b\	.	32gg\	.	.	.	.	.	.	.	.	.
.	32b\	.	32gg\	.	.	.	.	.	.	.	.	.
.	32b\JJJ	.	32gg\JJJ	.	.	.	.	.	.	.	.	.
*	*Xrep	*	*	*	*	*	*	*	*	*	*	*
*	*tremolo	*	*	*	*	*	*	*	*	*	*	*
!	!LO:TX:t=P:problem=grupa o wartości ćwierćnuty	!	!	!	!	!	!	!	!	!	!	!
.	32a\LLL	.	32cc\LLL	.	8A\L	no-	4A/	no-	4cc\	no-	.	.
.	32a\	.	32cc\	.	.	.	.	.	.	.	.	.
.	32a\	.	32cc\	.	.	.	.	.	.	.	.	.
.	32a\JJJ	.	32cc\JJJ	.	.	.	.	.	.	.	.	.
*	*rep	*	*	*	*	*	*	*	*	*	*	*
.	32a\LLL	.	32ff\LLL	.	8F\J	.	.	.	.	.	.	.
.	32a\	.	32ff\	.	.	.	.	.	.	.	.	.
.	32a\	.	32ff\	.	.	.	.	.	.	.	.	.
.	32a\JJJ	.	32ff\JJJ	.	.	.	.	.	.	.	.	.
*	*Xrep	*	*	*	*	*	*	*	*	*	*	*
!	!LO:TX:t=P:problem=grupa o wartości ćwierćnuty	!	!	!	!	!	!	!	!	!	!	!
.	32g\LLL	.	32b\LLL	.	8G\	-bis	8G/	-bis	8b\	-bis	.	.
.	32g\	.	32b\	.	.	.	.	.	.	.	.	.
.	32g\	.	32b\	.	.	.	.	.	.	.	.	.
.	32g\JJJ	.	32b\JJJ	.	.	.	.	.	.	.	.	.
*	*rep	*	*	*	*	*	*	*	*	*ij	*	*
.	32g\LLL	.	32ee\LLL	.	8E\	o-	8G/	O-	8b\	O-	.	.
.	32g\	.	32ee\	.	.	.	.	.	.	.	.	.
.	32g\	.	32ee\	.	.	.	.	.	.	.	.	.
.	32g\JJJ	.	32ee\JJJ	.	.	.	.	.	.	.	.	.
*	*Xrep	*	*	*	*	*	*	*	*	*	*	*
*	*Xtremolo	*	*	*	*	*	*	*	*	*	*	*
=21	=21	=21	=21	=21	=21	=21	=21	=21	=21	=21	=21	=21
1ryy	32f/LLL	.	32a\LLL	.	8F\	-ra	8F/	-ra	8a\	-ra	1ryy	1ryy
.	32f/	.	32a\	.	.	.	.	.	.	.	.	.
.	32f/	.	32a\	.	.	.	.	.	.	.	.	.
.	32f/JJJ	.	32a\JJJ	.	.	.	.	.	.	.	.	.
*	*rep	*	*	*	*	*	*	*	*	*	*	*
.	32f/LLL	.	32dd\LLL	.	8F\	pro	8A/	pro	8dd\	pro	.	.
.	32f/	.	32dd\	.	.	.	.	.	.	.	.	.
.	32f/	.	32dd\	.	.	.	.	.	.	.	.	.
.	32f/JJJ	.	32dd\JJJ	.	.	.	.	.	.	.	.	.
*	*Xrep	*	*	*	*	*	*	*	*	*	*	*
*	*tremolo	*	*	*	*	*	*	*	*	*	*	*
!	!LO:TX:t=P:problem=grupa o wartości ćwierćnuty	!	!	!	!LO:TX:t=P:problem=mixed beam	!	!	!	!	!	!	!
.	32e/LLL	.	32cc\LLL	.	8G\L	no-	8E/L	no-	8cc\L	no-	.	.
.	32e/	.	32cc\	.	.	.	.	.	.	.	.	.
.	32e/	.	32cc\	.	.	.	.	.	.	.	.	.
.	32e/JJJ	.	32cc\JJJ	.	.	.	.	.	.	.	.	.
!	!LO:TX:t=P:problem=grupa o wartości ćwierćnuty	!	!	!	!	!	!	!	!	!	!	!
.	32d/LLL	.	32b\LLL	.	8GG/J	.	8D/J	.	8b\J	.	.	.
.	32d/	.	32b\	.	.	.	.	.	.	.	.	.
.	32d/	.	32b\	.	.	.	.	.	.	.	.	.
.	32d/JJJ	.	32b\JJJ	.	.	.	.	.	.	.	.	.
!	!LO:TX:t=P:problem=grupa o wartości ćwierćnuty	!	!	!	!	!	!	!	!	!	!	!
.	32cc\LLL	.	32ee\LLL	.	8C/	-bis	8E/	-bis	8cc\	-bis	.	.
.	32cc\	.	32ee\	.	.	.	.	.	.	.	.	.
.	32cc\	.	32ee\	.	.	.	.	.	.	.	.	.
.	32cc\JJJ	.	32ee\JJJ	.	.	.	.	.	.	.	.	.
*	*	*	*	*	*	*ij	*	*ij	*	*	*	*
!	!LO:TX:t=P:problem=grupa o wartości ćwierćnuty	!	!	!	!	!	!	!	!	!	!	!
.	32cc\LLL	.	32aa\LLL	.	8c\	O-	8c\	O-	8ee\	O-	.	.
.	32cc\	.	32aa\	.	.	.	.	.	.	.	.	.
.	32cc\	.	32aa\	.	.	.	.	.	.	.	.	.
.	32cc\JJJ	.	32aa\JJJ	.	.	.	.	.	.	.	.	.
!	!LO:TX:t=P:problem=grupa o wartości ćwierćnuty	!	!	!	!	!	!	!	!	!	!	!
.	32b\LLL	.	32dd\LLL	.	8B\	-ra	8B\	-ra	8dd\	-ra	.	.
.	32b\	.	32dd\	.	.	.	.	.	.	.	.	.
.	32b\	.	32dd\	.	.	.	.	.	.	.	.	.
.	32b\JJJ	.	32dd\JJJ	.	.	.	.	.	.	.	.	.
!	!LO:TX:t=P:problem=grupa o wartości ćwierćnuty	!	!	!	!	!	!	!	!	!	!	!
.	32b\LLL	.	32gg\LLL	.	8G\	pro	8B\	pro	8dd\	pro	.	.
.	32b\	.	32gg\	.	.	.	.	.	.	.	.	.
.	32b\	.	32gg\	.	.	.	.	.	.	.	.	.
.	32b\JJJ	.	32gg\JJJ	.	.	.	.	.	.	.	.	.
!	!LO:LB:g=original	!	!	!	!	!	!	!	!	!	!	!
=22	=22	=22	=22	=22	=22	=22	=22	=22	=22	=22	=22	=22
!	!LO:TX:t=P:problem=każda grupa w takcie o wartości ćwierćnuty	!	!	!	!	!	!	!	!	!	!	!
1ryy	32a/LLL	.	32cc\LLL	.	8A\L	no-	4A/	no-	4cc\	no-	1ryy	1ryy
.	32a/	.	32cc\	.	.	.	.	.	.	.	.	.
.	32a/	.	32cc\	.	.	.	.	.	.	.	.	.
.	32a/JJJ	.	32cc\JJJ	.	.	.	.	.	.	.	.	.
.	32a/LLL	.	32ff\LLL	.	8F\J	.	.	.	.	.	.	.
.	32a/	.	32ff\	.	.	.	.	.	.	.	.	.
.	32a/	.	32ff\	.	.	.	.	.	.	.	.	.
.	32a/JJJ	.	32ff\JJJ	.	.	.	.	.	.	.	.	.
.	32g/LLL	.	32b\LLL	.	8G\	-bis	8G/	-bis	8b\	-bis	.	.
.	32g/	.	32b\	.	.	.	.	.	.	.	.	.
.	32g/	.	32b\	.	.	.	.	.	.	.	.	.
.	32g/JJJ	.	32b\JJJ	.	.	.	.	.	.	.	.	.
*	*	*	*	*	*	*	*	*Xij	*	*Xij	*	*
.	32g/LLL	.	32ee\LLL	.	8E\	O-	8G/	O-	8b\	O-	.	.
.	32g/	.	32ee\	.	.	.	.	.	.	.	.	.
.	32g/	.	32ee\	.	.	.	.	.	.	.	.	.
.	32g/JJJ	.	32ee\JJJ	.	.	.	.	.	.	.	.	.
.	32f/LLL	.	32a\LLL	.	8F\	-ra	8F/	-ra	8a\	-ra	.	.
.	32f/	.	32a\	.	.	.	.	.	.	.	.	.
.	32f/	.	32a\	.	.	.	.	.	.	.	.	.
.	32f/JJJ	.	32a\JJJ	.	.	.	.	.	.	.	.	.
.	32f/LLL	.	32dd\LLL	.	8F\	pro	8A/	pro	8dd\	pro	.	.
.	32f/	.	32dd\	.	.	.	.	.	.	.	.	.
.	32f/	.	32dd\	.	.	.	.	.	.	.	.	.
.	32f/JJJ	.	32dd\JJJ	.	.	.	.	.	.	.	.	.
!	!	!	!	!	!LO:TX:t=P:problem=mixed beam	!	!	!	!	!	!	!
.	32e/LLL	.	32cc\LLL	.	8G\L	.	8E/L	.	8cc\L	.	.	.
.	32e/	.	32cc\	.	.	.	.	.	.	.	.	.
.	32e/	.	32cc\	.	.	.	.	.	.	.	.	.
.	32e/JJJ	.	32cc\JJJ	.	.	.	.	.	.	.	.	.
.	32d/LLL	.	32b\LLL	.	8GG/J	no-	8D/J	no-	8b\J	no-	.	.
.	32d/	.	32b\	.	.	.	.	.	.	.	.	.
.	32d/	.	32b\	.	.	.	.	.	.	.	.	.
.	32d/JJJ	.	32b\JJJ	.	.	.	.	.	.	.	.	.
*	*Xtremolo	*	*Xtremolo	*	*	*	*	*	*	*	*	*
!	!	!	!	!	!LO:LB:g=original	!	!	!	!	!	!	!
=23	=23	=23	=23	=23	=23	=23	=23	=23	=23	=23	=23	=23
!	!	!LO:DY:rj	!LO:N:vis=8.	!	!	!	!	!	!	!	!	!
1ryy	8cc/L 8e/ 8G/	f	8cc/L 8e/ 8G/	.	4C/	bis	4E/	bis	8cc\	bis	1ryy	1ryy
.	16r	.	16r	.	.	.	.	.	8r	.	.	.
.	16B/Jk	.	16B/Jk	.	.	.	.	.	.	.	.	.
!	!	!LO:DY:rj	!	!LO:DY:rj	!	!	!	!	!	!	!	!
.	16.c/LL	p	16.c/LL	p	4r	.	4r	.	4r	.	.	.
.	32B/K	.	32B/K	.	.	.	.	.	.	.	.	.
.	16.c/	.	16.c/	.	.	.	.	.	.	.	.	.
.	32B/JJk	.	32B/JJk	.	.	.	.	.	.	.	.	.
.	8.c/L	.	8.c/L	.	2r	.	2r	.	2r	.	.	.
.	16e/K	.	16e/K	.	.	.	.	.	.	.	.	.
.	8.g/	.	8.g/	.	.	.	.	.	.	.	.	.
.	16cc/Jk	.	16cc/Jk	.	.	.	.	.	.	.	.	.
=24	=24	=24	=24	=24	=24	=24	=24	=24	=24	=24	=24	=24
!	!	!LO:DY:rj	!LO:N:vis=8.	!LO:DY:rj	!	!	!	!	!	!	!	!
1r	8b/L 8f/	f	8b/L 8f/	f	1ryy	.	0r	.	1r	.	1r	1r
.	16r	.	16r	.	.	.	.	.	.	.	.	.
.	16c#X/Jk	.	16c#X/Jk	.	.	.	.	.	.	.	.	.
!	!	!LO:DY:rj	!	!LO:DY:rj	!	!	!	!	!	!	!	!
.	16.d/LL	p	16.d/LL	p	.	.	.	.	.	.	.	.
.	32c#/K	.	32c#/K	.	.	.	.	.	.	.	.	.
.	16.d/	.	16.d/	.	.	.	.	.	.	.	.	.
.	32c#/JJk	.	32c#/JJk	.	.	.	.	.	.	.	.	.
!	!	!	!LO:LB:g=original	!	!	!	!	!	!	!	!	!
.	8.d/L	.	8.d/L	.	.	.	.	.	.	.	.	.
.	16f/K	.	16f/K	.	.	.	.	.	.	.	.	.
.	8.b/	.	8.b/	.	.	.	.	.	.	.	.	.
.	16dd/Jk	.	16dd/Jk	.	.	.	.	.	.	.	.	.
=25	=25	=25	=25	=25	=25	=25	=25	=25	=25	=25	=25	=25
1ryy	8cc/L 8g/	.	8cc/L 8g/	.	1ryy	.	.	.	1ryy	.	1ryy	1ryy
.	16r	.	16r	.	.	.	.	.	.	.	.	.
.	16d#X/Jk	.	16d#X/Jk	.	.	.	.	.	.	.	.	.
.	16.e/LL	.	16.e/LL	.	.	.	.	.	.	.	.	.
.	32d#/K	.	32d#/K	.	.	.	.	.	.	.	.	.
.	16.e/	.	16.e/	.	.	.	.	.	.	.	.	.
.	32d#/JJk	.	32d#/JJk	.	.	.	.	.	.	.	.	.
.	8e/L	.	8e/L	.	.	.	.	.	.	.	.	.
.	8g/	.	8g/	.	.	.	.	.	.	.	.	.
.	8cc/	.	8cc/	.	.	.	.	.	.	.	.	.
.	8ee/J	.	8ee/J	.	.	.	.	.	.	.	.	.
=26	=26	=26	=26	=26	=26	=26	=26	=26	=26	=26	=26	=26
1ryy	8a/L 8d/	.	16a/LL	.	1ryy	.	1ryy	.	1ryy	.	1ryy	1ryy
.	.	.	16cc#X/	.	.	.	.	.	.	.	.	.
.	8a/ 8d/	.	16dd/	.	.	.	.	.	.	.	.	.
.	.	.	16ff/JJ	.	.	.	.	.	.	.	.	.
.	8f/	.	8a/L	.	.	.	.	.	.	.	.	.
.	8d/J	.	8b/J	.	.	.	.	.	.	.	.	.
.	8e/L 8G/	.	8cc#/L 8e/ 8G/	.	.	.	.	.	.	.	.	.
.	8e/ 8G/	.	8cc#/ 8e/ 8G/	.	.	.	.	.	.	.	.	.
.	8e/J 8G/	.	8cc#/J 8e/ 8G/	.	.	.	.	.	.	.	.	.
.	8r	.	8r	.	.	.	.	.	.	.	.	.
==	==	==	==	==	==	==	==	==	==	==	==	==
*-	*-	*-	*-	*-	*-	*-	*-	*-	*-	*-	*-	*-
!!!system-decoration: [(s1,s2)][(s3,s4,s5)][(s6,s7)]s8
!!!RDF**dynam: p = p.
!!!RDF**dynam: f = f.
!!!ENC: Filip Voros
!!!END: 2021-11-18
!!!ENC: Leszek Kubiak
!!!END: 2021-11-22
!!!YEC: Copyright 2022 Narodowy Instytut Fryderyka Chopina (https://polishscores.org)
!!!YEM: Licence CC BY 4.0 (https://creativecommons.org/licenses/by/4.0)
